report_00007_2020-12-11T15:55:29.892Z/bootup-time/samples/pages+cached+noexternal+nofonts+nosvg+noimg+nocss/raw/values.svg

<svg width="640" height="490" xmlns="http://www.w3.org/2000/svg" xmlns:xlink="http://www.w3.org/1999/xlink"><path fill="#fff" d="M0 0h640v490H0z"/><defs><path id="d" stroke-width=".222" stroke="currentColor" d="M-1-1h2v2h-2z"/><path id="b" stroke-width=".222" stroke="currentColor" d="M0-1.33l-1.33 2h2.66z"/><path id="f" stroke-width=".222" stroke="currentColor" d="M0 1.33L1.265.411.782-1.067l-1.564-.009-.483 1.487z"/><use xlink:href="#b" id="c" stroke="currentColor" transform="rotate(180)"/><use xlink:href="#d" id="e" stroke="currentColor" transform="rotate(45)"/><circle id="a" stroke-width=".222" stroke="currentColor" cx="0" cy="0" r="1"/></defs><g fill="none" color="#000" stroke="currentColor"><path stroke="#000" d="M45.6 378.8h9m560.4 0h-9"/><text transform="translate(37.3 382.7)" stroke="none" fill="#000" font-family="Arial" font-size="12" text-anchor="end"><tspan>20</tspan></text></g><g fill="none" color="#000" stroke="currentColor"><path stroke="#000" d="M45.6 318.2h9m560.4 0h-9"/><text transform="translate(37.3 322.1)" stroke="none" fill="#000" font-family="Arial" font-size="12" text-anchor="end"><tspan>25</tspan></text></g><g fill="none" color="#000" stroke="currentColor"><path stroke="#000" d="M45.6 257.6h9m560.4 0h-9"/><text transform="translate(37.3 261.5)" stroke="none" fill="#000" font-family="Arial" font-size="12" text-anchor="end"><tspan>30</tspan></text></g><g fill="none" color="#000" stroke="currentColor"><path stroke="#000" d="M45.6 196.9h9m560.4 0h-9"/><text transform="translate(37.3 200.8)" stroke="none" fill="#000" font-family="Arial" font-size="12" text-anchor="end"><tspan>35</tspan></text></g><g fill="none" color="#000" stroke="currentColor"><path stroke="#000" d="M45.6 136.3h9m560.4 0h-9"/><text transform="translate(37.3 140.2)" stroke="none" fill="#000" font-family="Arial" font-size="12" text-anchor="end"><tspan>40</tspan></text></g><g fill="none" color="#000" stroke="currentColor"><path stroke="#000" d="M45.6 75.7h9m560.4 0h-9"/><text transform="translate(37.3 79.6)" stroke="none" fill="#000" font-family="Arial" font-size="12" text-anchor="end"><tspan>45</tspan></text></g><g fill="none" color="#000" stroke="currentColor"><path stroke="#000" d="M45.6 436v-9m0-408.9v9"/><text transform="translate(45.6 457.9)" stroke="none" fill="#000" font-family="Arial" font-size="12" text-anchor="middle"><tspan>0</tspan></text></g><g fill="none" color="#000" stroke="currentColor"><path stroke="#000" d="M103.1 436v-9m0-408.9v9"/><text transform="translate(103.1 457.9)" stroke="none" fill="#000" font-family="Arial" font-size="12" text-anchor="middle"><tspan>10</tspan></text></g><g fill="none" color="#000" stroke="currentColor"><path stroke="#000" d="M160.6 436v-9m0-408.9v9"/><text transform="translate(160.6 457.9)" stroke="none" fill="#000" font-family="Arial" font-size="12" text-anchor="middle"><tspan>20</tspan></text></g><g fill="none" color="#000" stroke="currentColor"><path stroke="#000" d="M218.1 436v-9m0-408.9v9"/><text transform="translate(218.1 457.9)" stroke="none" fill="#000" font-family="Arial" font-size="12" text-anchor="middle"><tspan>30</tspan></text></g><g fill="none" color="#000" stroke="currentColor"><path stroke="#000" d="M275.7 436v-9m0-408.9v9"/><text transform="translate(275.7 457.9)" stroke="none" fill="#000" font-family="Arial" font-size="12" text-anchor="middle"><tspan>40</tspan></text></g><g fill="none" color="#000" stroke="currentColor"><path stroke="#000" d="M333.2 436v-9m0-408.9v9"/><text transform="translate(333.2 457.9)" stroke="none" fill="#000" font-family="Arial" font-size="12" text-anchor="middle"><tspan>50</tspan></text></g><g fill="none" color="#000" stroke="currentColor"><path stroke="#000" d="M390.7 436v-9m0-408.9v9"/><text transform="translate(390.7 457.9)" stroke="none" fill="#000" font-family="Arial" font-size="12" text-anchor="middle"><tspan>60</tspan></text></g><g fill="none" color="#000" stroke="currentColor"><path stroke="#000" d="M448.2 436v-9m0-408.9v9"/><text transform="translate(448.2 457.9)" stroke="none" fill="#000" font-family="Arial" font-size="12" text-anchor="middle"><tspan>70</tspan></text></g><g fill="none" color="#000" stroke="currentColor"><path stroke="#000" d="M505.7 436v-9m0-408.9v9"/><text transform="translate(505.7 457.9)" stroke="none" fill="#000" font-family="Arial" font-size="12" text-anchor="middle"><tspan>80</tspan></text></g><g fill="none" color="#000" stroke="currentColor"><path stroke="#000" d="M563.2 436v-9m0-408.9v9"/><text transform="translate(563.2 457.9)" stroke="none" fill="#000" font-family="Arial" font-size="12" text-anchor="middle"><tspan>90</tspan></text></g><path stroke="#000" d="M45.6 18.1V436H615V18.1H45.6z" fill="none" color="#000"/><text transform="translate(171.5 475.9)" stroke="none" fill="#000" font-family="Arial" font-size="12" text-anchor="end" color="#000"><tspan>raw</tspan></text><path stroke="#9400D3" d="M179.8 472H222M45.6 411.1l5.8-15.2 5.7 6.8 5.8.8 5.7-6.7 5.8-9.2 5.7 18.4 5.8 2.1 5.7 4.9 5.8-19.2 5.7 3.1 5.8 14.1 5.7-5.7 5.8 22.7 5.7-22.5 5.8-22.2 5.7 26.4 5.8-21.9 5.7-6.8 5.8 14.6 5.7-369.5 5.8 376.8 5.7-3.7 5.8 1 5.7 9.2 5.8 4.8 5.7-24.7 5.8 13.4 5.7-13.7 5.8 20.6 5.7-7.4 5.8-.7 5.7-.5 5.8.8 5.8 12.2 5.7-16.2 5.8 10.8 5.7-.8 5.8-3.1 5.7-.9 5.8-4.7 5.7 21.8 5.8-22.8 5.7.3 5.8-2.2 5.7-8.9 5.8 11.4 5.7 15 5.8-19.1 5.7 23.5 5.8-18.8 5.7 7.9 5.8-16.7 5.7 1.5 5.8 2.8 5.7 3.2 5.8 12.8 5.7 1.8 5.8-4.7 5.7-20.1 5.8 37.6 5.7-12.2 5.8-32.1 5.7 36.9 5.8-6.8 5.7-12.6 5.8 1.9 5.8-9.2 5.7 5.8 5.8-8.3 5.7-.2 5.8 30 5.7-20.4 5.8 13.5 5.7-13.2 5.8 14.4 5.7-26.4 5.8 18.3 5.7 14.3 5.8-8.5 5.7-5.2 5.8-3.9 5.7-14.5 5.8-2.6 5.7 9.7 5.8 23.6 5.7-12.6 5.8-9.2 5.7-8.4 5.8 5.4 5.7 16.2 5.8-1.2 5.7-1.8 5.8-3.5 5.7-4.5 5.8 15.3 5.7-9.7 5.8 14.9 5.7-38.5L615 406" fill="none" color="#000"/><text transform="translate(371.4 475.9)" stroke="none" fill="#000" font-family="Arial" font-size="12" text-anchor="end" color="#000"><tspan>score p10=1282</tspan></text><path stroke="#009E73" d="M379.7 472h42.2" fill="none" color="#000"/><text transform="translate(571.3 475.9)" stroke="none" fill="#000" font-family="Arial" font-size="12" text-anchor="end" color="#000"><tspan>score median=3500</tspan></text><path stroke="#56B4E9" d="M579.6 472h42.2" fill="none" color="#000"/><g fill="none" color="#000" stroke="currentColor"><path stroke="#000" d="M45.6 18.1V436H615V18.1H45.6z"/></g></svg>

<?xml version="1.0" encoding="utf-8"  standalone="no"?>
<svg 
 width="640" height="490"
 viewBox="0 0 640 490"
 xmlns="http://www.w3.org/2000/svg"
 xmlns:xlink="http://www.w3.org/1999/xlink"
>

<title>Gnuplot</title>
<desc>Produced by GNUPLOT 5.4 patchlevel 0 </desc>

<g id="gnuplot_canvas">

<rect x="0" y="0" width="640" height="490" fill="#ffffff"/>
<defs>

	<circle id='gpDot' r='0.5' stroke-width='0.5' stroke='currentColor'/>
	<path id='gpPt0' stroke-width='0.222' stroke='currentColor' d='M-1,0 h2 M0,-1 v2'/>
	<path id='gpPt1' stroke-width='0.222' stroke='currentColor' d='M-1,-1 L1,1 M1,-1 L-1,1'/>
	<path id='gpPt2' stroke-width='0.222' stroke='currentColor' d='M-1,0 L1,0 M0,-1 L0,1 M-1,-1 L1,1 M-1,1 L1,-1'/>
	<rect id='gpPt3' stroke-width='0.222' stroke='currentColor' x='-1' y='-1' width='2' height='2'/>
	<rect id='gpPt4' stroke-width='0.222' stroke='currentColor' fill='currentColor' x='-1' y='-1' width='2' height='2'/>
	<circle id='gpPt5' stroke-width='0.222' stroke='currentColor' cx='0' cy='0' r='1'/>
	<use xlink:href='#gpPt5' id='gpPt6' fill='currentColor' stroke='none'/>
	<path id='gpPt7' stroke-width='0.222' stroke='currentColor' d='M0,-1.33 L-1.33,0.67 L1.33,0.67 z'/>
	<use xlink:href='#gpPt7' id='gpPt8' fill='currentColor' stroke='none'/>
	<use xlink:href='#gpPt7' id='gpPt9' stroke='currentColor' transform='rotate(180)'/>
	<use xlink:href='#gpPt9' id='gpPt10' fill='currentColor' stroke='none'/>
	<use xlink:href='#gpPt3' id='gpPt11' stroke='currentColor' transform='rotate(45)'/>
	<use xlink:href='#gpPt11' id='gpPt12' fill='currentColor' stroke='none'/>
	<path id='gpPt13' stroke-width='0.222' stroke='currentColor' d='M0,1.330 L1.265,0.411 L0.782,-1.067 L-0.782,-1.076 L-1.265,0.411 z'/>
	<use xlink:href='#gpPt13' id='gpPt14' fill='currentColor' stroke='none'/>
	<filter id='textbox' filterUnits='objectBoundingBox' x='0' y='0' height='1' width='1'>
	  <feFlood flood-color='#FFFFFF' flood-opacity='1' result='bgnd'/>
	  <feComposite in='SourceGraphic' in2='bgnd' operator='atop'/>
	</filter>
	<filter id='greybox' filterUnits='objectBoundingBox' x='0' y='0' height='1' width='1'>
	  <feFlood flood-color='lightgrey' flood-opacity='1' result='grey'/>
	  <feComposite in='SourceGraphic' in2='grey' operator='atop'/>
	</filter>
</defs>
<g fill="none" color="#FFFFFF" stroke="black" stroke-width="1.00" stroke-linecap="butt" stroke-linejoin="miter">
</g>
<g fill="none" color="black" stroke="currentColor" stroke-width="1.00" stroke-linecap="butt" stroke-linejoin="miter">
	<path stroke='black'  d='M45.6,378.8 L54.6,378.8 M615.0,378.8 L606.0,378.8  '/>	<g transform="translate(37.3,382.7)" stroke="none" fill="black" font-family="Arial" font-size="12.00"  text-anchor="end">
		<text><tspan font-family="Arial" > 20</tspan></text>
	</g>
</g>
<g fill="none" color="black" stroke="currentColor" stroke-width="1.00" stroke-linecap="butt" stroke-linejoin="miter">
	<path stroke='black'  d='M45.6,318.2 L54.6,318.2 M615.0,318.2 L606.0,318.2  '/>	<g transform="translate(37.3,322.1)" stroke="none" fill="black" font-family="Arial" font-size="12.00"  text-anchor="end">
		<text><tspan font-family="Arial" > 25</tspan></text>
	</g>
</g>
<g fill="none" color="black" stroke="currentColor" stroke-width="1.00" stroke-linecap="butt" stroke-linejoin="miter">
	<path stroke='black'  d='M45.6,257.6 L54.6,257.6 M615.0,257.6 L606.0,257.6  '/>	<g transform="translate(37.3,261.5)" stroke="none" fill="black" font-family="Arial" font-size="12.00"  text-anchor="end">
		<text><tspan font-family="Arial" > 30</tspan></text>
	</g>
</g>
<g fill="none" color="black" stroke="currentColor" stroke-width="1.00" stroke-linecap="butt" stroke-linejoin="miter">
	<path stroke='black'  d='M45.6,196.9 L54.6,196.9 M615.0,196.9 L606.0,196.9  '/>	<g transform="translate(37.3,200.8)" stroke="none" fill="black" font-family="Arial" font-size="12.00"  text-anchor="end">
		<text><tspan font-family="Arial" > 35</tspan></text>
	</g>
</g>
<g fill="none" color="black" stroke="currentColor" stroke-width="1.00" stroke-linecap="butt" stroke-linejoin="miter">
	<path stroke='black'  d='M45.6,136.3 L54.6,136.3 M615.0,136.3 L606.0,136.3  '/>	<g transform="translate(37.3,140.2)" stroke="none" fill="black" font-family="Arial" font-size="12.00"  text-anchor="end">
		<text><tspan font-family="Arial" > 40</tspan></text>
	</g>
</g>
<g fill="none" color="black" stroke="currentColor" stroke-width="1.00" stroke-linecap="butt" stroke-linejoin="miter">
	<path stroke='black'  d='M45.6,75.7 L54.6,75.7 M615.0,75.7 L606.0,75.7  '/>	<g transform="translate(37.3,79.6)" stroke="none" fill="black" font-family="Arial" font-size="12.00"  text-anchor="end">
		<text><tspan font-family="Arial" > 45</tspan></text>
	</g>
</g>
<g fill="none" color="black" stroke="currentColor" stroke-width="1.00" stroke-linecap="butt" stroke-linejoin="miter">
	<path stroke='black'  d='M45.6,436.0 L45.6,427.0 M45.6,18.1 L45.6,27.1  '/>	<g transform="translate(45.6,457.9)" stroke="none" fill="black" font-family="Arial" font-size="12.00"  text-anchor="middle">
		<text><tspan font-family="Arial" > 0</tspan></text>
	</g>
</g>
<g fill="none" color="black" stroke="currentColor" stroke-width="1.00" stroke-linecap="butt" stroke-linejoin="miter">
	<path stroke='black'  d='M103.1,436.0 L103.1,427.0 M103.1,18.1 L103.1,27.1  '/>	<g transform="translate(103.1,457.9)" stroke="none" fill="black" font-family="Arial" font-size="12.00"  text-anchor="middle">
		<text><tspan font-family="Arial" > 10</tspan></text>
	</g>
</g>
<g fill="none" color="black" stroke="currentColor" stroke-width="1.00" stroke-linecap="butt" stroke-linejoin="miter">
	<path stroke='black'  d='M160.6,436.0 L160.6,427.0 M160.6,18.1 L160.6,27.1  '/>	<g transform="translate(160.6,457.9)" stroke="none" fill="black" font-family="Arial" font-size="12.00"  text-anchor="middle">
		<text><tspan font-family="Arial" > 20</tspan></text>
	</g>
</g>
<g fill="none" color="black" stroke="currentColor" stroke-width="1.00" stroke-linecap="butt" stroke-linejoin="miter">
	<path stroke='black'  d='M218.1,436.0 L218.1,427.0 M218.1,18.1 L218.1,27.1  '/>	<g transform="translate(218.1,457.9)" stroke="none" fill="black" font-family="Arial" font-size="12.00"  text-anchor="middle">
		<text><tspan font-family="Arial" > 30</tspan></text>
	</g>
</g>
<g fill="none" color="black" stroke="currentColor" stroke-width="1.00" stroke-linecap="butt" stroke-linejoin="miter">
	<path stroke='black'  d='M275.7,436.0 L275.7,427.0 M275.7,18.1 L275.7,27.1  '/>	<g transform="translate(275.7,457.9)" stroke="none" fill="black" font-family="Arial" font-size="12.00"  text-anchor="middle">
		<text><tspan font-family="Arial" > 40</tspan></text>
	</g>
</g>
<g fill="none" color="black" stroke="currentColor" stroke-width="1.00" stroke-linecap="butt" stroke-linejoin="miter">
	<path stroke='black'  d='M333.2,436.0 L333.2,427.0 M333.2,18.1 L333.2,27.1  '/>	<g transform="translate(333.2,457.9)" stroke="none" fill="black" font-family="Arial" font-size="12.00"  text-anchor="middle">
		<text><tspan font-family="Arial" > 50</tspan></text>
	</g>
</g>
<g fill="none" color="black" stroke="currentColor" stroke-width="1.00" stroke-linecap="butt" stroke-linejoin="miter">
	<path stroke='black'  d='M390.7,436.0 L390.7,427.0 M390.7,18.1 L390.7,27.1  '/>	<g transform="translate(390.7,457.9)" stroke="none" fill="black" font-family="Arial" font-size="12.00"  text-anchor="middle">
		<text><tspan font-family="Arial" > 60</tspan></text>
	</g>
</g>
<g fill="none" color="black" stroke="currentColor" stroke-width="1.00" stroke-linecap="butt" stroke-linejoin="miter">
	<path stroke='black'  d='M448.2,436.0 L448.2,427.0 M448.2,18.1 L448.2,27.1  '/>	<g transform="translate(448.2,457.9)" stroke="none" fill="black" font-family="Arial" font-size="12.00"  text-anchor="middle">
		<text><tspan font-family="Arial" > 70</tspan></text>
	</g>
</g>
<g fill="none" color="black" stroke="currentColor" stroke-width="1.00" stroke-linecap="butt" stroke-linejoin="miter">
	<path stroke='black'  d='M505.7,436.0 L505.7,427.0 M505.7,18.1 L505.7,27.1  '/>	<g transform="translate(505.7,457.9)" stroke="none" fill="black" font-family="Arial" font-size="12.00"  text-anchor="middle">
		<text><tspan font-family="Arial" > 80</tspan></text>
	</g>
</g>
<g fill="none" color="black" stroke="currentColor" stroke-width="1.00" stroke-linecap="butt" stroke-linejoin="miter">
	<path stroke='black'  d='M563.2,436.0 L563.2,427.0 M563.2,18.1 L563.2,27.1  '/>	<g transform="translate(563.2,457.9)" stroke="none" fill="black" font-family="Arial" font-size="12.00"  text-anchor="middle">
		<text><tspan font-family="Arial" > 90</tspan></text>
	</g>
</g>
<g fill="none" color="black" stroke="currentColor" stroke-width="1.00" stroke-linecap="butt" stroke-linejoin="miter">
</g>
<g fill="none" color="black" stroke="currentColor" stroke-width="1.00" stroke-linecap="butt" stroke-linejoin="miter">
	<path stroke='black'  d='M45.6,18.1 L45.6,436.0 L615.0,436.0 L615.0,18.1 L45.6,18.1 Z  '/></g>
<g fill="none" color="black" stroke="currentColor" stroke-width="1.00" stroke-linecap="butt" stroke-linejoin="miter">
</g>
	<g id="gnuplot_plot_1" ><title>raw</title>
<g fill="none" color="black" stroke="currentColor" stroke-width="1.00" stroke-linecap="butt" stroke-linejoin="miter">
	<g transform="translate(171.5,475.9)" stroke="none" fill="black" font-family="Arial" font-size="12.00"  text-anchor="end">
		<text><tspan font-family="Arial" >raw</tspan></text>
	</g>
</g>
<g fill="none" color="black" stroke="currentColor" stroke-width="1.00" stroke-linecap="butt" stroke-linejoin="miter">
	<path stroke='rgb(148,   0, 211)'  d='M179.8,472.0 L222.0,472.0 M45.6,411.1 L51.4,395.9 L57.1,402.7 L62.9,403.5 L68.6,396.8 L74.4,387.6
		L80.1,406.0 L85.9,408.1 L91.6,413.0 L97.4,393.8 L103.1,396.9 L108.9,411.0 L114.6,405.3 L120.4,428.0
		L126.1,405.5 L131.9,383.3 L137.6,409.7 L143.4,387.8 L149.1,381.0 L154.9,395.6 L160.6,26.1 L166.4,402.9
		L172.1,399.2 L177.9,400.2 L183.6,409.4 L189.4,414.2 L195.1,389.5 L200.9,402.9 L206.6,389.2 L212.4,409.8
		L218.1,402.4 L223.9,401.7 L229.6,401.2 L235.4,402.0 L241.2,414.2 L246.9,398.0 L252.7,408.8 L258.4,408.0
		L264.2,404.9 L269.9,404.0 L275.7,399.3 L281.4,421.1 L287.2,398.3 L292.9,398.6 L298.7,396.4 L304.4,387.5
		L310.2,398.9 L315.9,413.9 L321.7,394.8 L327.4,418.3 L333.2,399.5 L338.9,407.4 L344.7,390.7 L350.4,392.2
		L356.2,395.0 L361.9,398.2 L367.7,411.0 L373.4,412.8 L379.2,408.1 L384.9,388.0 L390.7,425.6 L396.4,413.4
		L402.2,381.3 L407.9,418.2 L413.7,411.4 L419.4,398.8 L425.2,400.7 L431.0,391.5 L436.7,397.3 L442.5,389.0
		L448.2,388.8 L454.0,418.8 L459.7,398.4 L465.5,411.9 L471.2,398.7 L477.0,413.1 L482.7,386.7 L488.5,405.0
		L494.2,419.3 L500.0,410.8 L505.7,405.6 L511.5,401.7 L517.2,387.2 L523.0,384.6 L528.7,394.3 L534.5,417.9
		L540.2,405.3 L546.0,396.1 L551.7,387.7 L557.5,393.1 L563.2,409.3 L569.0,408.1 L574.7,406.3 L580.5,402.8
		L586.2,398.3 L592.0,413.6 L597.7,403.9 L603.5,418.8 L609.2,380.3 L615.0,406.0  '/></g>
	</g>
	<g id="gnuplot_plot_2" ><title>score p10=1282</title>
<g fill="none" color="black" stroke="currentColor" stroke-width="1.00" stroke-linecap="butt" stroke-linejoin="miter">
	<g transform="translate(371.4,475.9)" stroke="none" fill="black" font-family="Arial" font-size="12.00"  text-anchor="end">
		<text><tspan font-family="Arial" >score p10=1282</tspan></text>
	</g>
</g>
<g fill="none" color="black" stroke="currentColor" stroke-width="1.00" stroke-linecap="butt" stroke-linejoin="miter">
	<path stroke='rgb(  0, 158, 115)'  d='M379.7,472.0 L421.9,472.0  '/></g>
	</g>
	<g id="gnuplot_plot_3" ><title>score median=3500</title>
<g fill="none" color="black" stroke="currentColor" stroke-width="1.00" stroke-linecap="butt" stroke-linejoin="miter">
	<g transform="translate(571.3,475.9)" stroke="none" fill="black" font-family="Arial" font-size="12.00"  text-anchor="end">
		<text><tspan font-family="Arial" >score median=3500</tspan></text>
	</g>
</g>
<g fill="none" color="black" stroke="currentColor" stroke-width="1.00" stroke-linecap="butt" stroke-linejoin="miter">
	<path stroke='rgb( 86, 180, 233)'  d='M579.6,472.0 L621.8,472.0  '/></g>
	</g>
<g fill="none" color="#FFFFFF" stroke="rgb( 86, 180, 233)" stroke-width="2.00" stroke-linecap="butt" stroke-linejoin="miter">
</g>
<g fill="none" color="black" stroke="currentColor" stroke-width="2.00" stroke-linecap="butt" stroke-linejoin="miter">
</g>
<g fill="none" color="black" stroke="black" stroke-width="1.00" stroke-linecap="butt" stroke-linejoin="miter">
</g>
<g fill="none" color="black" stroke="currentColor" stroke-width="1.00" stroke-linecap="butt" stroke-linejoin="miter">
	<path stroke='black'  d='M45.6,18.1 L45.6,436.0 L615.0,436.0 L615.0,18.1 L45.6,18.1 Z  '/></g>
<g fill="none" color="black" stroke="currentColor" stroke-width="1.00" stroke-linecap="butt" stroke-linejoin="miter">
</g>
</g>
</svg>
